src/img/darkmode.svg

<svg width="40" height="40" viewBox="0 0 40 40" fill="none" xmlns="http://www.w3.org/2000/svg">
<g clip-path="url(#clip0_4_372)">
<path d="M30 19.0266C29.9556 18.6726 29.7333 18.3629 29.3778 18.2302C29.0222 18.0974 28.6667 18.2302 28.4444 18.4957C27.2889 19.7788 25.6889 20.5311 23.9556 20.5311C20.6667 20.5311 17.9556 17.8319 17.9556 14.5576C17.9556 13.4957 18.2667 12.4337 18.8 11.5045C18.9778 11.1948 18.9778 10.8408 18.7556 10.5311C18.5333 10.2656 18.1778 10.0886 17.8222 10.1771C13.2889 11.1948 10 15.2656 10 19.9116C10 25.3983 14.4889 29.8673 20 29.8673C25.5111 29.8673 30 25.3983 30 19.9116C30 19.6461 30 19.3364 30 19.0266ZM20 28.0974C15.4667 28.0974 11.7778 24.4249 11.7778 19.9116C11.7778 16.7257 13.6444 13.8939 16.4444 12.5222C16.2667 13.1859 16.1778 13.8496 16.1778 14.5576C16.1778 18.8496 19.6444 22.301 23.9556 22.301C25.4667 22.301 26.9333 21.8585 28.1778 21.062C27.6 25.0001 24.1333 28.0974 20 28.0974Z" fill="#A6A6A6"/>
<path d="M33.6444 20.0001C33.6444 12.5222 27.5111 6.41602 20 6.41602C12.4889 6.41602 6.35553 12.5222 6.35553 20.0001C6.35553 27.478 12.4889 33.5842 20 33.5842C27.5111 33.5842 33.6444 27.478 33.6444 20.0001ZM20 31.8142C13.4666 31.8142 8.13331 26.5045 8.13331 20.0001C8.13331 13.4957 13.4666 8.18593 20 8.18593C26.5333 8.18593 31.8666 13.4957 31.8666 20.0001C31.8666 26.5045 26.5333 31.8142 20 31.8142Z" fill="black"/>
<path d="M20.9778 0H19.2V4.73451H20.9778V0Z" fill="black"/>
<path d="M20.9778 35.2654H19.2V39.9999H20.9778V35.2654Z" fill="black"/>
<path d="M4.75556 19.115H0V20.8849H4.75556V19.115Z" fill="black"/>
<path d="M8.62721 30.1624L5.26453 33.5103L6.5216 34.7618L9.88429 31.414L8.62721 30.1624Z" fill="black"/>
<path d="M6.5166 5.23896L5.25952 6.49048L8.62221 9.83828L9.87929 8.58677L6.5166 5.23896Z" fill="black"/>
<path d="M40 19.115H35.2444V20.8849H40V19.115Z" fill="black"/>
<path d="M31.4094 30.1896L30.1523 31.4412L33.515 34.789L34.772 33.5375L31.4094 30.1896Z" fill="black"/>
<path d="M33.5073 5.20591L30.1446 8.55371L31.4017 9.80523L34.7644 6.45742L33.5073 5.20591Z" fill="black"/>
</g>
<defs>
<clipPath id="clip0_4_372">
<rect width="40" height="40" fill="white"/>
</clipPath>
</defs>
</svg>

<?xml version="1.0" encoding="UTF-8"?>
<svg id="Layer_1" xmlns="http://www.w3.org/2000/svg" version="1.1" viewBox="0 0 40 40">
  <!-- Generator: Adobe Illustrator 29.6.1, SVG Export Plug-In . SVG Version: 2.1.1 Build 9)  -->
  <defs>
    <style>
      .st0 {
        fill: #d1d1d1;
      }
    </style>
  </defs>
  <path d="M30,19.03c-.04-.35-.27-.66-.62-.8-.36-.13-.71,0-.93.27-1.16,1.28-2.76,2.04-4.49,2.04-3.29,0-6-2.7-6-5.97,0-1.06.31-2.12.84-3.05.18-.31.18-.66-.04-.97-.22-.27-.58-.44-.93-.35-4.53,1.02-7.82,5.09-7.82,9.73,0,5.49,4.49,9.96,10,9.96s10-4.47,10-9.96v-.89ZM20,28.1c-4.53,0-8.22-3.67-8.22-8.19,0-3.19,1.87-6.02,4.67-7.39-.18.66-.27,1.33-.27,2.04,0,4.29,3.47,7.74,7.78,7.74,1.51,0,2.98-.44,4.22-1.24-.58,3.94-4.04,7.04-8.18,7.04Z"/>
  <path class="st0" d="M33.64,20c0-7.48-6.13-13.58-13.64-13.58s-13.64,6.11-13.64,13.58,6.13,13.58,13.64,13.58,13.64-6.11,13.64-13.58ZM20,31.81c-6.53,0-11.87-5.31-11.87-11.81s5.33-11.81,11.87-11.81,11.87,5.31,11.87,11.81-5.33,11.81-11.87,11.81ZM20.98,0h-1.78v4.73h1.78V0ZM20.98,35.27h-1.78v4.73h1.78v-4.73ZM4.76,19.11H0v1.77h4.76v-1.77ZM8.63,30.16l-3.36,3.35,1.26,1.25,3.36-3.35-1.26-1.25ZM6.52,5.24l-1.26,1.25,3.36,3.35,1.26-1.25-3.36-3.35ZM40,19.11h-4.76v1.77h4.76v-1.77ZM31.41,30.19l-1.26,1.25,3.36,3.35,1.26-1.25-3.36-3.35ZM33.51,5.21l-3.36,3.35,1.26,1.25,3.36-3.35-1.26-1.25Z"/>
</svg>
